X:20
T:La Valsounette
R:misc
C:Jacky Molard, Bretagne, France
Z:id:hn-misc-20
M:3/4
L:1/8
K:Am
EA cB AG | FA cB A^G | Ac e^g ab | c'3 c' ba |
ge ba ge | ^f2 f^g af | ^ge ed BA | ^GA BG F=G |
EA cB AG | FA cB A^G | Ac e^g ab | c'3 c' bc' |
d'c' ba d'c' | b3 e f2 | e^g be c'b |1 a3 G AG :|2 a4 ||
a2 | b^g ge eb | b^g ge ec' | c'a ae ec' | c'a ae eb |
b^g ge eb | b^g ge e2 | FE FG AB | (3cBc (3dcd (3e^ga |
b^g ge eb | b^g ge ec' | c'a ae ec' | c'a ae bc' |
d'c' ba d'c' | b3 e f2 | e^g be c'b | a3 G AG ||

